src/lib/packages/icons/src/assets/line/closed-captioning.svg

<svg xmlns="http://www.w3.org/2000/svg" width="24" height="24" fill="none"><path fill="currentColor" d="M18 20.75H6c-2.418 0-3.75-1.332-3.75-3.75V7c0-2.418 1.332-3.75 3.75-3.75h12c2.418 0 3.75 1.332 3.75 3.75v10c0 2.418-1.332 3.75-3.75 3.75Zm-12-16c-1.577 0-2.25.673-2.25 2.25v10c0 1.577.673 2.25 2.25 2.25h12c1.577 0 2.25-.673 2.25-2.25V7c0-1.577-.673-2.25-2.25-2.25H6Zm11.75 8h-1.5a1.001 1.001 0 0 1-2 0v-1.5a1.001 1.001 0 0 1 2 0h1.5c0-1.378-1.121-2.5-2.5-2.5a2.503 2.503 0 0 0-2.5 2.5v1.5c0 1.378 1.121 2.5 2.5 2.5s2.5-1.122 2.5-2.5Zm-6.5 0h-1.5a1.001 1.001 0 0 1-2 0v-1.5a1.001 1.001 0 0 1 2 0h1.5c0-1.378-1.121-2.5-2.5-2.5a2.503 2.503 0 0 0-2.5 2.5v1.5c0 1.378 1.121 2.5 2.5 2.5s2.5-1.122 2.5-2.5Z"/></svg>

<svg width="24" height="24" viewBox="0 0 24 24" fill="none" xmlns="http://www.w3.org/2000/svg">
<path d="M18 20.75H6C3.582 20.75 2.25 19.418 2.25 17V7C2.25 4.582 3.582 3.25 6 3.25H18C20.418 3.25 21.75 4.582 21.75 7V17C21.75 19.418 20.418 20.75 18 20.75ZM6 4.75C4.423 4.75 3.75 5.423 3.75 7V17C3.75 18.577 4.423 19.25 6 19.25H18C19.577 19.25 20.25 18.577 20.25 17V7C20.25 5.423 19.577 4.75 18 4.75H6ZM17.75 12.75H16.25C16.25 13.301 15.802 13.75 15.25 13.75C14.698 13.75 14.25 13.301 14.25 12.75V11.25C14.25 10.699 14.698 10.25 15.25 10.25C15.802 10.25 16.25 10.699 16.25 11.25H17.75C17.75 9.872 16.629 8.75 15.25 8.75C13.871 8.75 12.75 9.872 12.75 11.25V12.75C12.75 14.128 13.871 15.25 15.25 15.25C16.629 15.25 17.75 14.128 17.75 12.75ZM11.25 12.75H9.75C9.75 13.301 9.302 13.75 8.75 13.75C8.198 13.75 7.75 13.301 7.75 12.75V11.25C7.75 10.699 8.198 10.25 8.75 10.25C9.302 10.25 9.75 10.699 9.75 11.25H11.25C11.25 9.872 10.129 8.75 8.75 8.75C7.371 8.75 6.25 9.872 6.25 11.25V12.75C6.25 14.128 7.371 15.25 8.75 15.25C10.129 15.25 11.25 14.128 11.25 12.75Z" fill="currentColor"/>
</svg>
